!!!OTL: 568. Maedchentreue.
!!!ARE: Europa, Mitteleuropa, Deutschland, Schlesien; Brandenburg; Hessen
!!!SCT: E0568
!!!TXL: @@DE
!!!YEM: Copyright 1995, estate of Helmut Schaffrath.
**kern	**text
*ICvox	*
*M4/4	*
*met(c)	*
*k[b-]	*
*F:	*
!LO:TX:a:t=Ernst.	!
!LO:TX:a:t=Mel. aus Schleſien, Brandenburg, Meiningen u. Heſſen (Wetterau).	!
{8cc	Wah-
8a	-re
=1	=1
4.f	Freundſchaft
8f	.
4.f	ſoll
8a	nicht
=2	=2
8aL	wan-
8gJ	.
4g	-ken,
4r}	.
{8f	wenn
8a	man
=3	=3
4.cc	gleich
8cc	ent-
8b-L	-fer-
8aJ	.
8b-L	-net
8ccJ	.
=4	=4
2a	iſt,
4r}	.
{8f	weil
8f	man
=5	=5
4.dd	doch
8dd	in
(4ff	dem
8ee)	.
8dd	Ge-
=6	=6
8ddL	-dan-
8ccJ	.
4cc	-ken
4r}	.
{8a	die
8cc	ent-
=7	=7
(4cc	-fern-
8dd)	.
8cc	-te
4.b-/	Freund-
8e	-ſchaft
=8	=8
2f	küßt.
4r}	.
==	==
!!!AGN: Liebes - Lied, Treue, Abschied
!!!ONB: ESAC (Essen Associative Code) Database: ERK1
!!!AMT: simple quadruple
!!!AIN: vox
!!!EED: Helmut Schaffrath
!!!EEV: 1.0
!!!GTL: Liebeslieder [Neuere (aus dem 18. bis 19. Jahrh.) - Liebeslust]
!!!URL-scan: https://rosdok.uni-rostock.de/mcrviewer/recordIdentifier/rosdok_ppn745177662/iview2/phys_0398.iview2?x=-128.77276441889308&y=1547.4797878132667&scale=0.5870222003877485&rotation=0&layout=singlePageLayout
!!!ENC: Anna Maria Matuszewska
!!!EEV: 2024/11/12
*-	*-
